client/src/assets/icons/heart-filled.svg

<svg width="58" height="58" viewBox="0 0 58 58" fill="none" xmlns="http://www.w3.org/2000/svg">
<path d="M29.0048 11.6434C31.9415 9.06421 35.7664 7.72855 39.6703 7.91902C43.5742 8.10949 47.2509 9.81113 49.9226 12.664C52.5943 15.5168 54.0514 19.2971 53.9858 23.2051C53.9201 27.1131 52.3367 30.8422 49.5707 33.6037L36.9436 46.2308L29 54.1695L11.4067 36.5786L8.43416 33.6013C5.66896 30.8394 4.08649 27.1102 4.02148 23.2025C3.95647 19.2948 5.41402 15.5151 8.08583 12.6628C10.7576 9.81043 14.4342 8.10924 18.3378 7.91901C22.2414 7.72877 26.0683 9.06442 29.0048 11.6434Z" fill="#011034"/>
<mask id="mask0_126_2457" style="mask-type:alpha" maskUnits="userSpaceOnUse" x="16" y="17" width="25" height="25">
<path d="M35.7917 30.5396H29.5417V36.7896H27.4583V30.5396H21.2083V28.4563H27.4583V22.2063H29.5417V28.4563H35.7917V30.5396Z" fill="black"/>
</mask>
<g mask="url(#mask0_126_2457)">
</g>
<path d="M35.7917 30.5396H29.5417V36.7896H27.4583V30.5396H21.2083V28.4563H27.4583V22.2063H29.5417V28.4563H35.7917V30.5396Z" fill="white"/>
</svg>

<svg xmlns="http://www.w3.org/2000/svg" width="58" height="58" fill="none" viewBox="0 0 58 58">
  <path fill="#011034" d="M29.005 11.643a15.051 15.051 0 0 1 20.566 21.96L36.944 46.232 29 54.169 11.407 36.58 8.434 33.6a15.051 15.051 0 0 1 20.57-21.958Z"/>
  <path fill="#fff" d="M35.792 30.54h-6.25v6.25h-2.084v-6.25h-6.25v-2.084h6.25v-6.25h2.084v6.25h6.25v2.084Z"/>
</svg>
